build/images/icon-email.svg

<svg width="18" height="16" viewBox="0 0 18 16" fill="none" xmlns="http://www.w3.org/2000/svg">
<path d="M3.36767 0.964399V3.73873C3.36767 3.96751 3.46194 4.18629 3.62863 4.34439C4.96483 5.61169 8.14403 8.62238 9 9.42148C10.2674 8.23833 9.91237 8.57377 10.0418 8.43693C10.0806 8.39594 10.1233 8.36092 10.1684 8.33079L14.3714 4.34439C14.5381 4.18629 14.6323 3.96747 14.6323 3.73873V0.962234C14.6323 0.521272 14.2879 0.155067 13.8443 0.126121C11.1688 -0.0483574 6.7766 -0.0362064 4.15968 0.128006C3.71441 0.155975 3.36767 0.521866 3.36767 0.964399Z" fill="#025BB1"/>
<path d="M17.1135 2.93034C17.0285 2.81079 16.9117 2.71864 16.766 2.66417C16.4604 2.54989 16.1343 2.77716 16.1343 3.10108V4.46933C16.1331 4.66301 16.0434 4.86004 15.8899 5.00327L11.6679 8.94476L15.8891 12.8733C16.1868 13.1504 16.2017 13.6144 15.9224 13.9097C15.643 14.2051 15.1752 14.2198 14.8774 13.9427L10.5891 9.95179L9.50663 10.9624C9.22198 11.2281 8.77798 11.2281 8.49334 10.9624L7.4108 9.95179L3.12249 13.9427C2.82475 14.2198 2.35692 14.2051 2.07755 13.9097C1.79819 13.6144 1.81312 13.1504 2.11082 12.8733L6.33207 8.94476L2.11001 5.00327C1.95614 4.85962 1.86638 4.66357 1.86567 4.46933V3.10496C1.86567 2.75771 1.49591 2.53257 1.1837 2.6897C1.00597 2.77915 0.887373 2.87971 0.807183 3.07298C0.213888 4.50075 0 7.30441 0 8.93865C0 10.581 0.222054 13.4283 0.809858 14.8101C0.845764 14.8946 0.899694 14.9732 0.954398 15.0303C2.02408 16.1466 13.5587 16.4179 16.7716 15.211C16.9065 15.1603 17.0246 15.0707 17.1114 14.9499C17.5687 14.3124 18 11.399 18 8.93865C18 6.64578 17.5925 3.60525 17.1135 2.93034Z" fill="#025BB1"/>
</svg>

<svg width="18" height="16" fill="none" xmlns="http://www.w3.org/2000/svg"><path d="M3.368.964V3.74c0 .229.094.447.26.605A1746.51 1746.51 0 009 9.421c1.267-1.183.912-.847 1.042-.984a.738.738 0 01.126-.106l4.203-3.987a.835.835 0 00.261-.605V.962a.84.84 0 00-.788-.836C11.17-.048 6.777-.036 4.16.128a.841.841 0 00-.792.836z" fill="#025BB1"/><path d="M17.113 2.93a.738.738 0 00-.347-.266.468.468 0 00-.632.437V4.47a.75.75 0 01-.244.534l-4.222 3.942 4.221 3.928a.73.73 0 01.033 1.037.744.744 0 01-1.045.033L10.59 9.952l-1.082 1.01a.744.744 0 01-1.014 0l-1.082-1.01-4.289 3.99a.743.743 0 01-1.044-.032.729.729 0 01.033-1.037l4.221-3.928L2.11 5.003a.747.747 0 01-.244-.534V3.105a.47.47 0 00-.682-.415c-.178.09-.297.19-.377.383C.214 4.501 0 7.304 0 8.939c0 1.642.222 4.49.81 5.871.036.085.09.163.144.22 1.07 1.117 12.605 1.388 15.818.181a.737.737 0 00.34-.261c.457-.638.888-3.551.888-6.011 0-2.293-.407-5.334-.887-6.009z" fill="#025BB1"/></svg>
